X: 143112
Q: "Hornpipe."
M: C
L: 1/8
K: G
(3(uDEF) |\
E>GF>A G>BA>c | (3(BAG) c>B A2 (3(DEF) |\
d>ce>d c>BA>G |\
E>GF>A G>BA>c | B>GA>F G2 :|\
|: (3(def) |\
g2 (3(bag) f>ge>f | d>ec>d B>cA>B |
g2 (3(bag) f>ge>f | d>ec>d B>cA>B |\


